gruvbox_icons/symbolic/actions/format-text-underline-symbolic.svg

<?xml version="1.0" encoding="UTF-8"?>
<svg height="16px" viewBox="0 0 16 16" width="16px" xmlns="http://www.w3.org/2000/svg">
    <path d="m 4 2 v 2 h 6 c 0.429688 0 1 0.613281 1 1 v 1 h -5 c -0.917969 0 -1.734375 0.378906 -2.25 0.964844 c -0.515625 0.585937 -0.742188 1.324218 -0.738281 2.046875 c 0.007812 0.71875 0.246093 1.445312 0.757812 2.027343 c 0.515625 0.578126 1.320313 0.960938 2.230469 0.960938 h 7 v -7 c 0 -1.632812 -1.320312 -3 -3 -3 z m 2 6 h 5 v 2 h -5 c -0.398438 0 -0.578125 -0.117188 -0.730469 -0.289062 c -0.152343 -0.167969 -0.253906 -0.441407 -0.257812 -0.722657 c 0 -0.277343 0.09375 -0.539062 0.238281 -0.703125 c 0.148438 -0.164062 0.328125 -0.285156 0.75 -0.285156 z m -4 5 v 2 h 12 v -2 z m 0 0" fill="#2e3436"/>
</svg>

<svg xmlns="http://www.w3.org/2000/svg" width="16" height="16" version="1.1">
 <path style="fill:#cdd3e0" d="M 13,5 C 13,3.37 11.68,2 10,2 H 4 V 4 H 10 C 10.43,4 11,4.61 11,5 V 6 H 6 C 5.08,6 4.26,6.38 3.75,6.97 3.24,7.55 3,8.28 3,9 3,9.72 3.27,10.45 3.78,11.03 4.29,11.61 5.09,12 6,12 H 13 M 6,8 H 11 V 10 H 6 C 5.6,10 5.43,9.89 5.28,9.72 5.13,9.55 5,9.28 5,9 5,8.72 5.1,8.45 5.25,8.28 5.4,8.12 5.58,8 6,8 Z"/>
 <path style="fill:#cdd3e0" d="M 2,13 V 15 H 14 V 13 Z"/>
</svg>
